X: 98
T:Concerto in Bb Affetuoso
M:4/4
L:1/16
Q:70
N:Posted to the woodenflute mailing list November 2002
C:CPE Bach
Z: Clive Catterall
K:G minor
d2d4 cB A2G2z2  G>c| c2=B2z2 G>f f2e2z2e>c|
B_AGAzAce ed^cdz2 d>B| =AG^FGzGBd dc=Bcz2 c>e|
d2c>e d2c>e de e2 z2>e d>c|c2B>c B2A2 G>^f f2 z>f g>a|
d>bg>d =e>c'a>e ^f>d'b>f g>c'=b>=f|fe2d2^c2A2=c- c>e d>c|
B8||
